X: 23287
T: Leaving Uist
R: waltz
M: 3/4
K: Eminor
ee>d|:"Em"B4 (3B>AG|"D/F#"A>G E2 (3EFG|"Am"A4 BA|"C"e3 ede|"G"g3 aag|
"Em"e>dB2BA|1 "Am"G3 "G"BAG|"Em"E3 e>ed:|2 "G"G3 Bde|"Am"A3 aa2||
"C"a3 gab|"Am"a>ge3c|"G"d3 eg2|"G"g3 aag|
"C"deg "Am"aed|"G"ABd "Em"eAG|"Am"EG AB AG|E3|

